images/used-by/yoast.svg

<?xml version="1.0" standalone="no"?><!DOCTYPE svg PUBLIC "-//W3C//DTD SVG 1.1//EN" "http://www.w3.org/Graphics/SVG/1.1/DTD/svg11.dtd"><svg width="100%" height="100%" viewBox="0 0 271 120" version="1.1" xmlns="http://www.w3.org/2000/svg" xmlns:xlink="http://www.w3.org/1999/xlink" xml:space="preserve" style="fill-rule:evenodd;clip-rule:evenodd;stroke-linejoin:round;stroke-miterlimit:1.41421;"><clipPath id="_clip1"><rect id="Yoast" x="0" y="0" width="270.7" height="120"/></clipPath><g clip-path="url(#_clip1)"><path d="M78.379,59.245c0.508,-20.912 16.57,-20.891 21.938,-13.398c4.891,6.828 5.895,30.17 -9.267,29.997c-6.983,-0.076 -12.465,-4.796 -12.671,-16.599ZM91.05,28.697c-20.912,0 -29.28,14.035 -29.28,29.667c0,16.247 8.243,30.283 29.28,30.283c20.975,0 29.227,-14.699 29.189,-29.328c-0.047,-17.82 -9.064,-30.622 -29.189,-30.622Z" style="fill:#ebfcf7;"/><path d="M260.677,74.143l0,-30.298l10.83,0l0,-13.153l-10.83,0l0,-15.884l-16.729,0l0,15.884l-8.486,0l0,13.153l8.486,0l0,28.576c0,16.244 11.325,25.898 23.276,27.895l4.993,-13.45c-6.968,-0.883 -11.476,-6.09 -11.54,-12.723Z" style="fill:#ebfcf7;"/><path d="M159.421,69.218c-13.25,14.827 -25.385,0.871 -12.957,-5.218c3.658,-1.247 8.623,-1.301 12.957,-1.301l0,6.519ZM176.273,69.344l0,-22.775c0,-0.83 -0.054,-1.613 -0.133,-2.373c-1.451,-18.399 -27.581,-18.361 -47.818,-11.297l5.849,11.774c13.178,-6.257 21.067,-4.646 23.824,-1.561c0.071,0.08 0.142,0.159 0.206,0.243c0.008,0.01 0.015,0.021 0.023,0.031c1.406,1.899 1.069,4.894 1.069,7.247c-17.224,0 -35.551,2.288 -35.551,21.174c0,14.358 17.991,23.596 36.79,9.911l2.788,6.729l16.113,0c-1.44,-7.901 -3.16,-14.671 -3.16,-19.103Z" style="fill:#ebfcf7;"/><path d="M201.985,45.344c0,-5.609 8.981,-8.235 23.147,-1.765l4.9,-11.897c-19.066,-5.762 -45.102,-6.282 -45.271,13.662c-0.08,9.555 6.051,14.7 14.875,17.98c6.114,2.273 14.941,3.45 14.915,8.318c-0.033,6.362 -13.716,7.337 -26.172,-1.22l-5.032,12.902c16.988,8.454 48.579,8.693 48.411,-12.499c-0.166,-20.948 -29.773,-17.358 -29.773,-25.481Z" style="fill:#ebfcf7;"/><path d="M54.701,0l-24.249,67.356l-11.614,-36.372l-17.272,0l19.338,49.673c1.646,4.229 1.647,8.923 -0.002,13.152c-2.161,5.543 -5.758,10.286 -14.525,11.464l0,14.727c17.07,0 26.297,-10.494 34.531,-33.492l32.271,-86.508l-18.478,0Z" style="fill:#ebfcf7;"/></g></svg>

<?xml version="1.0" standalone="no"?>
<!DOCTYPE svg PUBLIC "-//W3C//DTD SVG 1.1//EN" "http://www.w3.org/Graphics/SVG/1.1/DTD/svg11.dtd">
<svg width="100%" height="100%" viewBox="0 0 271 120" version="1.1" xmlns="http://www.w3.org/2000/svg" xmlns:xlink="http://www.w3.org/1999/xlink" xml:space="preserve" style="fill-rule:evenodd;clip-rule:evenodd;stroke-linejoin:round;stroke-miterlimit:1.41421;">
    <g>
        <path d="M78.379,59.245C78.887,38.333 94.949,38.354 100.317,45.847C105.208,52.675 106.212,76.017 91.05,75.844C84.067,75.768 78.585,71.048 78.379,59.245L78.379,59.245ZM91.05,28.697C70.138,28.697 61.77,42.732 61.77,58.364C61.77,74.611 70.013,88.647 91.05,88.647C112.025,88.647 120.277,73.948 120.239,59.319C120.192,41.499 111.175,28.697 91.05,28.697L91.05,28.697Z" style="fill:black;"/>
        <path d="M260.677,74.143L260.677,43.845L271.507,43.845L271.507,30.692L260.677,30.692L260.677,14.808L243.948,14.808L243.948,30.692L235.462,30.692L235.462,43.845L243.948,43.845L243.948,72.421C243.948,88.665 255.273,98.319 267.224,100.316L272.217,86.866C265.249,85.983 260.741,80.776 260.677,74.143L260.677,74.143Z" style="fill:black;"/>
        <path d="M159.421,69.218C146.171,84.045 134.036,70.089 146.464,64C150.122,62.753 155.087,62.699 159.421,62.699L159.421,69.218ZM176.273,69.344L176.273,46.569C176.273,45.739 176.219,44.956 176.14,44.196C174.689,25.797 148.559,25.835 128.322,32.899L134.171,44.673C147.349,38.416 155.238,40.027 157.995,43.112C158.066,43.192 158.137,43.271 158.201,43.355C158.209,43.365 158.216,43.376 158.224,43.386C159.63,45.285 159.293,48.28 159.293,50.633C142.069,50.633 123.742,52.921 123.742,71.807C123.742,86.165 141.733,95.403 160.532,81.718L163.32,88.447L179.433,88.447C177.993,80.546 176.273,73.776 176.273,69.344Z" style="fill:black;"/>
        <path d="M201.985,45.344C201.985,39.735 210.966,37.109 225.132,43.579L230.032,31.682C210.966,25.92 184.93,25.4 184.761,45.344C184.681,54.899 190.812,60.044 199.636,63.324C205.75,65.597 214.577,66.774 214.551,71.642C214.518,78.004 200.835,78.979 188.379,70.422L183.347,83.324C200.335,91.778 231.926,92.017 231.758,70.825C231.592,49.877 201.985,53.467 201.985,45.344Z" style="fill:black;"/>
        <path d="M54.701,0L30.452,67.356L18.838,30.984L1.566,30.984L20.904,80.657C22.55,84.886 22.551,89.58 20.902,93.809C18.741,99.352 15.144,104.095 6.377,105.273L6.377,120C23.447,120 32.674,109.506 40.908,86.508L73.179,0L54.701,0L54.701,0Z" style="fill:black;"/>
    </g>
</svg>
